svgs/light/crutch.svg

<svg xmlns="http://www.w3.org/2000/svg" viewBox="0 0 512 512"><!-- Font Awesome Pro 6.0.0-alpha2 by @fontawesome - https://fontawesome.com License - https://fontawesome.com/license (Commercial License) --><path d="M507.312 196.688L315.312 4.688C309.062 -1.562 298.937 -1.562 292.688 4.688S286.438 21.063 292.688 27.312L484.688 219.312C487.812 222.438 491.906 224 496 224S504.187 222.438 507.312 219.312C513.562 213.062 513.562 202.938 507.312 196.688ZM404.688 212.688L336 281.375L230.625 176L299.312 107.312C305.562 101.062 305.562 90.937 299.312 84.688S282.937 78.438 276.688 84.688L162.375 199C151.219 210.156 143.656 224.281 140.5 239.875L113.25 376.125L4.688 484.688C-1.563 490.938 -1.563 501.063 4.688 507.312C7.812 510.438 11.906 512 16 512S24.188 510.438 27.312 507.312L135.873 398.752L272.156 371.5C287.719 368.344 301.844 360.781 313 349.625L427.312 235.312C433.562 229.062 433.562 218.937 427.312 212.688S410.938 206.438 404.688 212.688ZM290.375 327C283.688 333.688 275.188 338.25 265.875 340.125L148.406 363.594L171.875 246.156C173.75 236.812 178.312 228.312 185 221.625L208 198.625L313.375 304L290.375 327Z"/></svg>

<svg xmlns="http://www.w3.org/2000/svg" viewBox="0 0 512 512"><!--! Font Awesome Pro 6.3.0 by @fontawesome - https://fontawesome.com License - https://fontawesome.com/license (Commercial License) Copyright 2023 Fonticons, Inc. --><path d="M507.3 196.7l-192-192c-6.25-6.25-16.38-6.25-22.62 0s-6.25 16.38 0 22.62l192 192C487.8 222.4 491.9 224 496 224s8.188-1.562 11.31-4.688C513.6 213.1 513.6 202.9 507.3 196.7zM404.7 212.7L336 281.4L230.6 176l68.69-68.69c6.25-6.25 6.25-16.38 0-22.62s-16.38-6.25-22.62 0L162.4 199C151.2 210.2 143.7 224.3 140.5 239.9l-27.25 136.3l-108.6 108.6c-6.25 6.25-6.25 16.37 0 22.62C7.813 510.4 11.91 512 16 512s8.188-1.562 11.31-4.687l108.6-108.6l136.3-27.25c15.56-3.156 29.69-10.72 40.84-21.88l114.3-114.3c6.25-6.25 6.25-16.38 0-22.62S410.9 206.4 404.7 212.7zM290.4 327c-6.688 6.688-15.19 11.25-24.5 13.12l-117.5 23.47l23.47-117.4C173.8 236.8 178.3 228.3 185 221.6L208 198.6L313.4 304L290.4 327z"/></svg>
